src/assets/icons/chevron-left.svg

<svg viewBox="0 0 24 24" fill="currentColor" xmlns="http://www.w3.org/2000/svg">
<path fill-rule="evenodd" clip-rule="evenodd" d="M15.325 3.27504C15.6262 3.50098 15.7091 3.91003 15.535 4.2315L15.475 4.32504L9.925 11.725C9.87167 11.7962 9.861 11.8886 9.893 11.9682L9.925 12.025L15.475 19.4251C15.7235 19.7565 15.6564 20.2266 15.325 20.4751C15.0238 20.7011 14.6079 20.6661 14.348 20.4089L14.275 20.3251L8.72499 12.925C8.29167 12.3473 8.26072 11.5683 8.63214 10.9618L8.725 10.825L14.275 3.42504C14.5235 3.09367 14.9936 3.02652 15.325 3.27504Z" fill="currentColor"/>
</svg>

<svg xmlns="http://www.w3.org/2000/svg" width="24" height="24" viewBox="0 0 24 24">
    <g fill="none" fill-rule="evenodd">
        <path fill="currentColor" d="M15.325 3.275c.301.226.384.635.21.956l-.06.094-5.55 7.4c-.053.071-.064.163-.032.243l.032.057 5.55 7.4c.249.331.181.801-.15 1.05-.301.226-.717.191-.977-.066l-.073-.084-5.55-7.4c-.433-.578-.464-1.357-.093-1.963l.093-.137 5.55-7.4c.249-.331.719-.399 1.05-.15z"/>
    </g>
</svg>
